static/img/kroki/da032a861aa3d5839f8ffc1d99ce3f7d.svg

<?xml version="1.0" encoding="us-ascii" standalone="no"?><svg xmlns="http://www.w3.org/2000/svg" xmlns:xlink="http://www.w3.org/1999/xlink" contentStyleType="text/css" height="152px" preserveAspectRatio="none" style="width:145px;height:152px;" version="1.1" viewBox="0 0 145 152" width="145px" zoomAndPan="magnify"><defs/><g><!--class gcp_disk--><g id="elem_gcp_disk"><rect codeLine="22" fill="#3D176E" height="39.7891" id="gcp_disk" rx="2.5" ry="2.5" style="stroke:#000D19;stroke-width:0.5;" width="112" x="16.5" y="7"/><ellipse cx="31.5" cy="26.8945" fill="#ADD1B2" rx="11" ry="11" style="stroke:#181818;stroke-width:1.0;"/><path d="M34.4688,32.5352 Q33.8906,32.832 33.25,32.9727 Q32.6094,33.1289 31.9063,33.1289 Q29.4063,33.1289 28.0781,31.4883 Q26.7656,29.832 26.7656,26.707 Q26.7656,23.582 28.0781,21.9258 Q29.4063,20.2695 31.9063,20.2695 Q32.6094,20.2695 33.25,20.4258 Q33.9063,20.582 34.4688,20.8789 L34.4688,23.5977 Q33.8438,23.0195 33.25,22.7539 Q32.6563,22.4727 32.0313,22.4727 Q30.6875,22.4727 30,23.5508 Q29.3125,24.6133 29.3125,26.707 Q29.3125,28.8008 30,29.8789 Q30.6875,30.9414 32.0313,30.9414 Q32.6563,30.9414 33.25,30.6758 Q33.8438,30.3945 34.4688,29.8164 L34.4688,32.5352 Z " fill="#000000"/><text fill="#D9B8FF" font-family="Helvetica" font-size="17" lengthAdjust="spacing" textLength="70" x="50.5" y="32.7798">gcp_disk</text></g><!--class gcp_image--><g id="elem_gcp_image"><rect codeLine="24" fill="#3D176E" height="39.7891" id="gcp_image" rx="2.5" ry="2.5" style="stroke:#000D19;stroke-width:0.5;" width="131" x="7" y="106.79"/><ellipse cx="22" cy="126.6845" fill="#ADD1B2" rx="11" ry="11" style="stroke:#181818;stroke-width:1.0;"/><path d="M24.9688,132.3252 Q24.3906,132.622 23.75,132.7627 Q23.1094,132.9189 22.4063,132.9189 Q19.9063,132.9189 18.5781,131.2783 Q17.2656,129.622 17.2656,126.497 Q17.2656,123.372 18.5781,121.7158 Q19.9063,120.0595 22.4063,120.0595 Q23.1094,120.0595 23.75,120.2158 Q24.4063,120.372 24.9688,120.6689 L24.9688,123.3877 Q24.3438,122.8095 23.75,122.5439 Q23.1563,122.2627 22.5313,122.2627 Q21.1875,122.2627 20.5,123.3408 Q19.8125,124.4033 19.8125,126.497 Q19.8125,128.5908 20.5,129.6689 Q21.1875,130.7314 22.5313,130.7314 Q23.1563,130.7314 23.75,130.4658 Q24.3438,130.1845 24.9688,129.6064 L24.9688,132.3252 Z " fill="#000000"/><text fill="#D9B8FF" font-family="Helvetica" font-size="17" lengthAdjust="spacing" textLength="89" x="41" y="132.5698">gcp_image</text></g><!--link gcp_disk to gcp_image--><g id="link_gcp_disk_gcp_image"><path codeLine="26" d="M72.5,47.22 C72.5,64.36 72.5,83.27 72.5,100.41 " fill="none" id="gcp_disk-to-gcp_image" style="stroke:#1A83AF;stroke-width:2.0;"/><polygon fill="#1A83AF" points="72.5,106.41,76.5,97.41,72.5,101.41,68.5,97.41,72.5,106.41" style="stroke:#1A83AF;stroke-width:2.0;"/></g><!--SRC=[XT31IiD040RWUvzY8UT2Oj0a5o46YbwAM6yYCidE9akoks5sQwdYksjQhMjYs-lCnym_qqYE35NljaoXAf7ipBPIzq2WM4vaDeNf3B50211nCcukZ7PdmH8KibliNj792iRYiP5Lgz5QTk6rRg1gQp9hpVVZ7O6sNotKpbD51zRcpf4irmwzC3mhKo76SZmqY7cKNE646U98toGCGnvbOt9srScx3s8btv15_jEMnk4avcJ5JfrCEGWlvEJGd_xHZFV0kTGrk_Hg3_jCf97-r5SDSBCPj83E-ckiGqBZjZqMawimIxb8_iLtnt0rV8xLLV_2fMtP- -p3Aqa5DUvg1p1_2g8yZVF5y_pwrtm2]--></g></svg>

<svg xmlns="http://www.w3.org/2000/svg" width="145" height="152" viewBox="0 0 145 152"><rect width="112" height="39.789" x="16.5" y="7" fill="#3D176E" rx="2.5" ry="2.5" style="stroke:#000d19;stroke-width:.5"/><circle cx="31.5" cy="26.895" r="11" fill="#ADD1B2" style="stroke:#181818;stroke-width:1"/><path d="M34.469 32.535q-.578.297-1.219.438-.64.156-1.344.156-2.5 0-3.828-1.64-1.312-1.657-1.312-4.782t1.312-4.781q1.328-1.656 3.828-1.656.703 0 1.344.156.656.156 1.219.453v2.719q-.625-.578-1.219-.844-.594-.281-1.219-.281-1.343 0-2.031 1.078-.687 1.062-.687 3.156T30 29.879q.688 1.062 2.031 1.062.625 0 1.219-.265.594-.281 1.219-.86z"/><text x="50.5" y="32.78" fill="#D9B8FF" font-family="Helvetica" font-size="17" textLength="70">gcp_disk</text><rect width="131" height="39.789" x="7" y="106.79" fill="#3D176E" rx="2.5" ry="2.5" style="stroke:#000d19;stroke-width:.5"/><circle cx="22" cy="126.684" r="11" fill="#ADD1B2" style="stroke:#181818;stroke-width:1"/><path d="M24.969 132.325q-.578.297-1.219.438-.64.156-1.344.156-2.5 0-3.828-1.64-1.312-1.657-1.312-4.782t1.312-4.781q1.328-1.656 3.828-1.656.703 0 1.344.156.656.156 1.219.453v2.719q-.625-.579-1.219-.844-.594-.281-1.219-.281-1.343 0-2.031 1.078-.687 1.062-.687 3.156t.687 3.172q.688 1.062 2.031 1.062.625 0 1.219-.265.594-.281 1.219-.86z"/><text x="41" y="132.57" fill="#D9B8FF" font-family="Helvetica" font-size="17" textLength="89">gcp_image</text><path fill="none" d="M72.5 47.22v53.19" style="stroke:#1a83af;stroke-width:2"/><path fill="#1A83AF" d="m72.5 106.41 4-9-4 4-4-4z" style="stroke:#1a83af;stroke-width:2"/></svg>
